X:1
T:Apparitions
T:Apparitions
T:No. 2
T:Franz Liszt
C:Franz Liszt
%%score { ( 1 4 ) | ( 2 3 5 ) }
L:1/8
Q:1/4=130
M:6/8
K:C
V:1 treble nm="Piano" snm="Pno."
V:4 treble 
V:2 bass 
V:3 bass 
V:5 bass 
V:1
"^Vivamente."!p! z3/2 [A,E]/[A,E]- [A,E]>[A,E][A,E]- | [A,E]>!<(![A,E][A,E] [A,E]<[A,E] [A,E]!<)! | %2
!f! !fermata![A,E]2 !fermata!z!mp! !wedge!B !wedge!c z/ !wedge!d/ |{/c} e3- e z!mp! e | %4
 !>!e2 f !>!d2 A |{/AB} !^!c6- | c2 z4 | z2 z{/^A,} !tenuto![^G,B,]3 | %8
[Q:1/4=160] z f z z2 !fermata!z |!mf![Q:1/4=130] z3/2 [A,E]/[A,E]- [A,E]>[A,E][A,E]- | %10
 [A,E]>!<(![A,E][A,E] [A,E]<[A,E] [A,E]!<)! | %11
!f! !fermata![A,E]2 !fermata!z!mp! !wedge!B !wedge!c z/ !wedge!d/ |{/c} e3- e z!mp! e | %13
 !>!e2 f !>!d2 A |{/AB} !^!c6- | c2 z!p![Q:1/4=100] .B .c z/ !wedge!d/ | B2[Q:1/4=80] a g3 | %17
[Q:1/4=130] z!pp! B/!<(!a/g/^f/=f/d/A/._B/!fermata!z/!<)!!p!.=B/ | .[Ec] z z G/4A/4!>!^F/ F2- | %19
!pp! F/!<(!G/B/c/^f/g/b/c'/g'/^f'/!<)!!p! !^!a' |a' z!p!!8va(! a'/g'/a'/g'/ e'/d'/e'/d'/!8va)! | %21
 a/g/a/g/ e/d/e/d/e/d/ !wedge!G | z2 z G/4A/4^F/ !>!F2 | %23
!pp! ^F/!<(!G/B/c/^f/g/!8va(! b/c'/^f'/g'/^d''/!<)!!p!e''/ | z z!p! e''/d''/e''/d''/ a'/g'/a'/g'/ | %25
 e'/d'/e'/d'/!8va)! a/g/a/g/ e/d/_A/G/ | z{/G=A} ^F/G/[B^d]/[ce]/ ^f/g/e'd' | %27
 z{/G=A} ^F/G/[B^d]/[ce]/ ^f/g/ z/ a'g'/ | z!pp!{/GA} ^F/G/B/c/^f/g/!8va(! b/c'/^f'/g'/ | %29
[Q:1/4=180] [b'^d'']/c''/e''/[b'd'']/c''/e''/ [b'd'']/c''/e''/[b'd'']/c''/e''/ | %30
 [b'^d'']/c''/e''/[b'd'']/c''/e''/[Q:1/4=220]"_vivace" =d''/c''/a'/g'/ f'/e'/ | %31
d'/c'/!8va)! a/g/f/e/ d/c/A/G/ F/E/ |D/C/ x x4 | z2 !fermata!z || %34
!f![Q:1/4=110]"^Adagio" !wedge!B !wedge!c z/ !wedge!d/ |{/!fermata!c} !^!!fermata!e6- || %36
!p![Q:1/4=100]"^Tempo I." e3[Q:1/4=110] B2 (3^g/a/g/ | ^f3 ^c^df | %38
!<(! B[Q:1/4=125]e^g!<)!!p!{/=g} !>!^c'3- | c'[Q:1/4=110]b^a!>(! =a^c^d!>)! | %40
!p! B3!8va(! ^g'2- (3g'/a'/g'/ | ^f'3 ^c'^d'f' |"_cresc." b[Q:1/4=125]e'^g' !tenuto!^c''3 | %43
!>(! (4:3:4[e'^c''][^d'b'][^c'^a'][=c'=a'][Q:1/4=110] [a^f']!8va)! !wedge![a^c'] !wedge![^fd']!>)! | %44
!p! !tenuto![e^ge']3[Q:1/4=110] z!pp! .[=g^a] .[^f=a][Q:1/4=140] | %45
 [e^ge']3[Q:1/4=110] z!pp! .[=g^a] .[^f=a][Q:1/4=140] | %46
 (3.[e^g][Q:1/4=120] .[=g^a] .[=fb] .[ec']/ .[eg]/ .[_e=a]/ .[d_b]/ (5:4:5.[df]/ .[^c^^f]/ .[^B^g]/ .[^Ac]/ .[=A^d]/ | %47
 !tenuto![^Ge]3[Q:1/4=110] z!pp! .[=G^A].[^F=A][Q:1/4=160] | %48
 !tenuto![^Ge]3[Q:1/4=110] z!pp! .[=G^A].[^F=A][Q:1/4=160] | %49
 (3.[E^G][Q:1/4=120] .[=G^A] .[^F^B] .[^E^c]/ .[E^G]/ .[=EA]/ .[^DB]/ (5:4:5.[DF]/ .[^C^^F]/ .[^B,G]/ .[^A,C]/ .[A,D]/ | %50
 .[^G,E]2 z[Q:1/4=110]!p! !wedge!^C !wedge!^D !wedge!E[Q:1/4=160] | z2 z[Q:1/4=160] | %52
[Q:1/4=110]!pp! (3.=C.=D.E z[Q:1/4=130]!mp! .B,/!<(!.C/.D/!<)!!f!!>!E/- E- | %53
 E3- E2[Q:1/4=110]!mp! E | !>!E2 F !>!D2 A, | B,3- B, z E | E2 ^E ^C2 ^G, |[K:bass] ^A,6 | %58
[K:treble][Q:1/4=130]!<(! B,.C.^C!<)!!f! D3 | z2 z!pp![Q:1/4=80] .B.c.^c | d3 z z2 | %61
 z!p![Q:1/4=130] [^GB]/[Ac]/[^A^c]/.[Bd]/ (6:4:6!fermata!z/!<(! [GB]/[=A=c]/[^A^c]/[Bd]/!<)!!f!!>!!wedge![^B^d]/ z | %62
 !fermata!z6 ||[K:A]!mp![Q:1/4=130]"^Maggiore." [ce]3- [ce]!mp![^B^d][ce] | [df]3!mp! [^Ac]3 | %65
!p! !>![ce]3!p! [Bd]2!p! [=Ac] | [GB][^^F^A][GB] [=Ac][Bd][^B^d] | %67
 !wedge!!tenuto![=df] !>![ce]2"_cresc." [ce]/[^B^d]/[ce]/[=d^e]/[^df]/[=e=g]/ | %68
!mp! [e^g]!^![gb][fa] [cf][F^d][Ge] | %69
 [Ec]3!<(! (3[DGB]/[Ac]/[Bd]/(3[ce]/[df]/[eg]/[fa]/4[gb]/4[ac']/4[bd']/4!<)! | %70
!f!{/c} [c'e']3 [c'e']!arpeggio![^B^d']!arpeggio![ce'] | !arpeggio!!^![df']3 !arpeggio![^Ac']3 | %72
[Q:1/4=120] !arpeggio!!^![ce']3!mf! [Bd']2!mp! !arpeggio![Ac'] | %73
[Q:1/4=130]!<(! !arpeggio![Gb]!arpeggio![^^F^a]!arpeggio![Gb] !arpeggio![Ac']!arpeggio![Bd']!arpeggio![^B^d']!<)! | %74
!f! !arpeggio![df']!arpeggio![ce']!^![ac''] z .[Ac'].[fa'] | %75
 z/!>(! [fa]/[d'f']/[Q:1/4=120][df]/[bd']/[Bd]/[Q:1/4=100] (3[gb]/[fa]/[df]/[Q:1/4=80] (3[Bd]/[GB]/[FA]/!>)!!p![Q:1/4=30]"^Adagio" !fermata!G | %76
[Q:1/4=130]"^a tempo"!p! [CA] z z{/EF} ^D3- | x .^B/ x/ .c/ x/ .^b/ x/!8va(! .c'/ x/ x!8va)! | %78
 z z!p!"^molto delicato"!8va(! c''/b'/c''/b'/ f'/e'/f'/e'/ | c'/b/c'/b/!8va)! f/e/f/e/ c/B/=F/E/ | %80
!p! z2 z{/E^F} ^D3- | x .^B/ x/ .c/ x/!8va(!!<(! .^b/ x/ .c'/ x/ x!<)!!8va)! | %82
 z z!p!!8va(! =f''/e''/f''/e''/ c''/b'/c''/b'/ | ^f'/e'/f'/e'/ c'/b/c'/b/!8va)! f/e/f/e/ | %84
!p! z{/EF} ^D/E/[G^B]/[Ac]/ ^d/e/c'b |!p![Q:1/4=140] z{/EF} ^D/E/[G^B]/[Ac]/ ^d/e/ z/ !^!f'e'/ | %86
[Q:1/4=160] z ^D/E/G/A/ ^d/e/g/a/!8va(! ^d'/e'/ | %87
[Q:1/4=180] g'/a'/^d''/e''/ g'/a'/d''/e''/ g'/a'/d''/e''/ | %88
 g'/a'/^d''/e''/ g'/a'/d''/e''/ g'/a'/d''/e''/ | %89
!p![Q:1/4=240] =b'/a'/f'/e'/ c'/b/a/f/!8va)! e/c/B/A/ | F/E/C/B,/ x4 | %91
 z2 z!p![Q:1/4=100] [GB]!mp! .[Ac] z/ [Bd]/ | e3- e z!p! e | !>!e2 =f !>!d2 A | %94
!pp! =c3- !fermata!c[Q:1/4=70]!p! [=FA][FB] | %95
!pp! !fermata!=c3-!p! c[Q:1/4=40]!>(! [=C=FA][FAB]!>)! |!pp![Q:1/4=60] [EA^c]6 | %97
[Q:1/4=160]!p![I:staff +1] (21:32:14A,,/8E,/8A,/8[I:staff -1] C/8E/8A/8c/8e/8a/8c'/8e'/8a'/8c''/8 e'' z z |] %98
V:2
!ped! .[A,,,A,,] z/ [E,C]/[E,C]- [E,C]>[E,C][E,C]- | [E,C]>[E,C][E,C] [E,C]<[E,C] [E,C]!ped-up! | %2
 [E,C]2 !fermata!z z z2 | z3/2!pp![I:staff -1] .[EA]/.[EA] .[EA]>.[EA].[EA] | %4
[I:staff +1] z3/2[I:staff -1] .[FA]/[I:staff +1] z z3/2[I:staff -1] .[DF]/[I:staff +1] z | %5
 z3/2 .[A,,E,A,]/.[A,,E,A,] .[A,,E,A,]z/.[A,,E,A,]/.[A,,E,A,] | z2 z[K:treble]!p! .B .c z/ .d/ | %7
{/C} !^!E6 | (3F/[^GB]/d/ z{/^a'} !wedge!b' z2 !fermata!z | %9
[K:bass]!ped! .[A,,,A,,] z/ [E,C]/[E,C]- [E,C]>[E,C][E,C]- | %10
 [E,C]>[E,C][E,C] [E,C]<[E,C] [E,C]!ped-up! | [E,C]2 !fermata!z z z2 | %12
 z3/2!pp![I:staff -1] .[EA]/.[EA] .[EA]>.[EA].[EA] | %13
[I:staff +1] z3/2[I:staff -1] .[FA]/[I:staff +1] z z3/2[I:staff -1] .[DF]/[I:staff +1] z | %14
 z3/2 .[A,,E,A,]/.[A,,E,A,] .[A,,E,A,]z/.[A,,E,A,]/.[A,,E,A,] | z2 z!pp! D3 | [G,D]3 [G,D] z2 | %17
[K:treble] z !arpeggio![G,DF] z z2 z |[K:bass]!pp! .C,z/.G,/.[CE] .[CE]z/.G,/.C, | %19
 .C,z/.G,/.[CE] .[CE]z/.G,/.C, | .C,z/.G,/!ped!.[B,F] .[B,F]z/.G,/.C, | %21
 .C,z/.G,/.[B,F]!ped-up! .[B,F]z/.G,/.C, | .C,z/.G,/.[CE] .[CE]z/.G,/.C, | %23
 .C,z/.G,/.[CE] .[CE]z/.G,/.C, | .C,z/.G,/!ped!.[B,F] .[B,F]z/.G,/.C, | %25
 .C,z/.G,/.[B,F] .[B,F]!ped-up!z/.G,/.C, | .C,z/.G,/.[CE] .C, z/ .[B,F]/.G, | %27
 .C,z/.G,/.[CE] .C, z/ .[B,F]/.G, | .C,z/.G,/.[CE] .[CE]z/.G,/.C, | %29
!ped! .C,z/.G,/.[CE] .C,z/.G,/.[CE] | z2 z z2!<(! z | x6!ped-up! | %32
 x A,/G,/F,/E,/ D,/C,/A,,/G,,/!<)!!f! !wedge!C,, | z2 !fermata!z || z2 z | !fermata!z6 || %36
!pp!!ped!{/C} E2 x4!ped-up!!ped!!ped-up! |!ped! A,B,^D!ped-up!!ped! A,B,D!ped-up! | %38
!ped! ^G,B,E!ped-up!!ped! G,B,E!ped-up! |!ped! A,^DB,!ped-up!!ped! A,DB,!ped-up! | %40
!ped! ^G,EB,!ped-up!!ped! E,3!ped-up! |!ped! E,3!ped-up!!ped! E,3!ped-up! | %42
!ped! E,3!ped-up!!ped! ^A,3!ped-up! |!ped! =A,3!ped-up!!ped! ^D3!ped-up! | %44
!ped! E,/[K:treble]^D/E/^A/B/^d/!ped-up! .e !wedge!^c' !wedge!^d' | %45
[K:bass] E,/[K:treble]^D/E/^A/B/^d/ .e !wedge!^c' !wedge!^d' | %46
 (3!wedge!e' .e .d .c/ .c/ ._c/ ._B/ (5:4:5.B/ .A/ .^G/ .=G/ .^F/ | %47
[K:bass] E/!mp!.C/.B,/.F,/.E,/.B,,/ .E,,[K:treble] .^c .^d | %48
[K:bass] E/!p!.C/.B,/.F,/.E,/.B,,/ .E,,[K:treble] .^c .^d | %49
 (3.e .E .^D .^C/ .C/ .=C/ .B,/[K:bass] (5:4:5.B,/ .A,/ .^G,/ .=G,/ .^F,/ | %50
 E,/!mp!.C,/.B,,/.F,,/ .E,, z2 z | z/!mf! .E,/.C,/.B,,/.F,,/.E,,/ | z6!ped! | z6!ped-up! | %54
 z3/2!pp! A,/ z z3/2 D,/ z | z3/2!p! .[E,^G,]/.[E,G,] .[E,G,]z/.[E,G,]/.[E,G,] | %56
 z3/2!pp! [^C,^G,]/ z z3/2 C,/ z | z3/2 .[^F,,^A,,]/.[F,,A,,] .[F,,A,,]>.F,,.F,, | %58
 z3/2!p! .^F,/.F, .F,>!mf!.F,.F, | z2 z z3/2 .[=F,B,]/.[F,B,] | [F,B,]3 z z2 | %61
 z!ped! [E,DE] z!ped-up! z2!ped!!ped-up! z | !fermata!z6 || %63
[K:A]!ped! z3/2 A/A!ped-up!!ped! A z z!ped-up! |!ped! z3/2 .A/.A!ped-up!!ped! z3/2 .=G/.G!ped-up! | %65
!ped! z3/2 .F/.F!ped-up!!ped! z .F z!ped-up! | %66
!ped! z!pp! .[A,D=F].[A,DF]!ped-up!!ped! z .[A,DE] z!ped-up! | %67
!ped! z3/2 .[A,CE]/!ped-up!.[A,CE]!ped! z2 z!ped-up! | %68
!ped! z3/2!p! .[G,CE]/.[G,CE]!ped-up!!mp!!ped! z3/2!p! .[G,^B,]/.[G,B,]!ped-up! | %69
!mp!!ped! z3/2!p! .[G,C]/.[G,C]!ped-up!!mf!!ped! x [G,DE] z!ped-up! | %70
!mf!!ped! z3/2!mp! .[A,CE]/.[A,CE]!ped-up!!ped! [A,CE] z z!ped-up! | %71
!mf!!ped! z3/2!mp! .[F,DF]/.[F,DF]!ped-up!!ped! z !>![E=G]F!ped-up! | %72
!ped! z ^A,2!ped-up!!ped! B,2 z!ped-up! | %73
!mf!!ped! .E,,!mp! .[E,DE].[E,DE]!ped-up!!ped!.[E,DE].[E,DE] z!ped-up! | %74
!mf!!ped! A,,!mp! .[A,CE].[E,CE]!ped-up! [A,CE] z2 | %75
!ped! E,, .[B,DE].[E,DE]!ped-up!!ped! .[B,DE] z!ped-up![K:treble] (3!tenuto!!fermata!d/!tenuto!B/!tenuto!c/ | %76
[K:bass]!pp! .A,,z/.E,/.[A,C] .[A,C]z/.E,/.A,, | .A,,z/.E,/.[A,C] .[A,C]z/.E,/.A,, | %78
 .A,,z/!pp!.E,/!ped!.[G,D] .[G,D]z/.E,/.A,, | .A,,z/.E,/.[G,D] .[G,D]!ped-up!z/.E,/.A,, | %80
!pp! .A,,z/.E,/.[A,C] .[A,C]z/.E,/.A,, | .A,,z/.E,/.[A,C] .[A,C]z/.E,/.A,, | %82
!pp! .A,,z/!pp!.E,/!ped!.[G,D] .[G,D]z/.E,/.A,, | .A,,z/.E,/.[G,D] .[G,D]!ped-up!z/.E,/.A,, | %84
!pp! .A,,z/.E,/.[A,C] A,, z/ [G,D]/E, | .A,,z/.E,/.[A,C] A,, z/ [G,D]/E, | %86
 .A,,z/.E,/.[A,C] .[A,C]z/.E,/.A,, |!ped! .A,,z/.E,/.[A,C] .A,,z/.E,/.[A,C] | %88
 .A,,z/.E,/.[A,C] .A,,z/.E,/.[A,C] | x6 | x2!ped-up! A,/F,/E,/C,/ B,,/A,,/!mp! .A,,, | %91
 z2 z [D=F] .[CE] z/ [B,D]/ | C3- C z z | z z/ .[D,A,D]/ z z3/2 .[F,A,]/ z | %94
 [=C,=G,]3- !fermata![C,G,]!ped! [D,=F,][_D,F,]!ped-up! | %95
 [=C,=G,]3- !fermata![C,G,] [=F,,=F,][D,,D,] |!ped! [A,,,A,,]6!ped-up! | x6 |] %98
V:3
 x6 | x6 | x6 | z3/2 .[A,C]/.[A,C] .[A,C]>.[A,C].[A,C] | x3/2 .[A,C]/ z z3/2 .[A,,F,C]/ z | x6 | %6
 x3[K:treble] x3 | x6 | F x x4 |[K:bass] x6 | x6 | x6 | z3/2 .[A,C]/.[A,C] .[A,C]>.[A,C].[A,C] | %13
 x3/2 .[A,C]/ z z3/2 .[A,,F,C]/ z | x6 | z2 z _A,3 | x6 |[K:treble] x6 |[K:bass] x6 | x6 | x6 | %21
 x6 | x6 | x6 | x6 | x6 | x6 | x6 | x6 | x6 | x6 | x6 | x6 | x3 || x3 | x6 || ^G,B,E G,B,E | x6 | %38
 x6 | ^F,3 F,3 | E,3 E,B,E | E,^C^F E,B,^D | E,B,E ^A,=GE, | A,^FE, ^DE,B, | x/[K:treble] x11/2 | %45
[K:bass] x/[K:treble] x11/2 | x6 |[K:bass] x4[K:treble] x2 |[K:bass] x4[K:treble] x2 | %49
 x4[K:bass] x2 | x6 | x3 | x6 | x6 | x3/2 [D,F,]/ x x3/2 [F,,A,,]/ x | %55
 x3/2 .[E,,B,,]/.[E,,B,,] .[E,,B,,]x/.E,,/.E,, | x3/2 x/ x x3/2 [^E,,^G,,]/ x | x6 | %58
 z3/2 .[^F,,D,]/.[F,,D,] .[F,,B,,]>.F,,.F,, | x6 | x6 | x6 | x6 ||[K:A] A,, x x4 | .A, z z .A, z2 | %65
 A, x x2 x2 | z6 | x6 | G,, x x G,, x x | C, x x !>!E,, x2 | A,, x x x x x | F,, x x x F, z | %72
 x B,,2 B,,2 x | x6 | x6 | x5[K:treble] x |[K:bass] x6 | x6 | x6 | x6 | x6 | x6 | x6 | x6 | x6 | %85
 x6 | x6 | x6 | x6 | x6 | x6 | x3 A, .A, z | A,3- A, x x | x6 | x6 | x6 | x6 | x361/60 |] %98
V:4
 x6 | x6 | x6 | x6 | z3/2 x/ x4 | z3/2!pp! .[CE]/.[CE] .[CE]z/.[CE]/.[CE] | x6 | x6 | %8
 x (3f/[^gb]/f'/ x4 | x6 | x6 | x6 | x6 | z3/2 x/ x4 | z3/2!pp! .[CE]/.[CE] .[CE]z/.[CE]/.[CE] | %15
 z2 z ^F3 | =F3- F z z | x6 | x6 | x .^d/ x/ .e/ x/ .^d'/ x/ .e'/ x/ x | %20
 x x!8va(! .e'/ x/ .d'/ x/ .a/ x/ .g/ x/!8va)! | e/ z/ d/ z/ A/ z/ !>!_A2 G | x6 | %23
 x .^d/ x/ .e/ x/!8va(! .^d'/ x/ .e'/ x/ b'/c''/ | z z .a'/ x/ .g'/ x/ .e'/ x/ .d'/ x/ | %25
 .a/ x/ .g/ x/!8va)! .e/ x/ .d/ x/ A/ x/ x | x x2 !>!e2 =d | x x2 !>!e=d z | %28
 x x .^d/ x/ .e/ x/!8va(! .^d'/ x/ .e'/ z/ | x6 | x6 | x!8va)! x5 | x6 | x3 || x3 | x6 || x6 | x6 | %38
 x6 | x6 | x3!8va(! x3 | ^a3 =a^fa | ^g2 b e'3 | x4!8va)! x2 | x6 | x6 | x6 | x6 | x6 | x6 | x6 | %51
 x3 | x6 | x6 | x6 | x6 | x6 |[K:bass] z3/2!pp! .[^C,^F,]/.[C,F,] .[C,F,]>.F,.F, |[K:treble] x6 | %59
 x2 x z3/2 .[DG]/.[DG] | [DG]3 x x2 | x6 | x6 ||[K:A] z3/2!p! =G/G G x2 | %64
 z3/2!p! .F/.F z3/2!p! .E/.E | z3/2!pp! .D/.D z!pp! .D z | x6 | x6 | x6 | x6 | x6 | x6 | x6 | x6 | %74
 x6 | x4 x (3!tenuto!=F/!tenuto!D/!tenuto!E/ | x6 | %77
 D/E/G/A/^d/e/ g/a/!8va(!^d'/e'/.[g'^b']/.[a'c'']/!8va)! | %78
 x x!8va(! .f'/ x/ .e'/ x/ .c'/ x/ .b/ x/ | .f/ x/ .e/ x/!8va)! .c/ x/ .B/ x/ .F/ x/ x | x6 | %81
 D/E/G/A/^d/e/!8va(! g/a/^d'/e'/[^b'^d'']/!mp![c''e'']/!8va)! | %82
 x x!8va(! .c''/ x/ .b'/ x/ .=f'/ x/ .e'/ x/ | .c'/ x/ .b/ x/ .f/ x/ .e/ x/!8va)! .c/ x/ B/ x/ | %84
 x x2 c2 =B | x x2 c=B x | x x ^B/ x/ c/ x/ ^b/ x/!8va(! c'/ x/ | %87
 ^b'/ x/ c''/ x/ b'/ x/ c''/ x/ b'/ x/ c''/ x/ | ^b'/ x/ c''/ x/ b'/ x/ c''/ x/ b'/ x/ c''/ x/ | %89
 x4!8va)! x2 | x6 | x6 | c3- c x x | z z/ .[=FA]/ z z3/2 .D/ z | E3- E x2 | E3- E x2 | x6 | %97
 x361/60 |] %98
V:5
 x6 | x6 | x6 | x6 | x6 | x6 | x3[K:treble] x3 | x6 | x6 |[K:bass] x6 | x6 | x6 | x6 | x6 | x6 | %15
 x6 | x6 |[K:treble] x6 |[K:bass] x6 | x6 | x6 | x6 | x6 | x6 | x6 | x6 | x6 | x6 | x6 | x6 | x6 | %31
 x6 | x6 | x3 || x3 | x6 || x6 | x6 | x6 | x6 | x6 | x6 | x6 | x6 | x/[K:treble] x11/2 | %45
[K:bass] x/[K:treble] x11/2 | x6 |[K:bass] x4[K:treble] x2 |[K:bass] x4[K:treble] x2 | %49
 x4[K:bass] x2 | x6 | x3 | x6 | x6 | x6 | x6 | x6 | x6 | x6 | x6 | x6 | x6 | x6 ||[K:A] x6 | x6 | %65
 x6 | x6 | x6 | x6 | x6 | x6 | x6 | x =G,F, F,=F, x | x6 | x6 | x5[K:treble] x |[K:bass] x6 | x6 | %78
 x6 | x6 | x6 | x6 | x6 | x6 | x6 | x6 | x6 | x6 | x6 | x6 | x6 | x6 | x6 | x6 | x6 | x6 | x6 | %97
 x361/60 |] %98

